svg/furkot/mapbox-maki/shelter.svg

<svg viewBox="0 0 512 512" xmlns="http://www.w3.org/2000/svg"><path d="m118.154 236.308v196.922h374.154v78.77h-452.923v-244.972l-39.385 14.967v-85.071l512-196.924v84.283z"/></svg>

<svg viewBox="0 0 512 512" xmlns="http://www.w3.org/2000/svg"><path d="M 118.154 236.308 L 118.154 433.23 L 492.308 433.23 L 492.308 512 L 39.385 512 L 39.385 512 L 39.385 512 L 39.385 267.028 L 0 281.995 L 0 196.924 L 512 0 L 512 84.283 L 118.154 236.308 Z"/></svg>
